X: 168
M: 2/4
L: 1/8
K: A
|:\
e2ef | ecBA | fefg | a2gf |\
e2ef | edca | ecdB | A4 :|

